icon-themes/breeze_svg/cmd/32/removebullets.svg

<svg viewBox="0 0 32 32" xmlns="http://www.w3.org/2000/svg"><path d="m5.5 4a1.5 1.5 0 0 0 -1.5 1.5 1.5 1.5 0 0 0 1.5 1.5 1.5 1.5 0 0 0 1.5-1.5 1.5 1.5 0 0 0 -1.5-1.5zm0 10a1.5 1.5 0 0 0 -1.5 1.5 1.5 1.5 0 0 0 1.5 1.5 1.5 1.5 0 0 0 1.5-1.5 1.5 1.5 0 0 0 -1.5-1.5zm0 10a1.5 1.5 0 0 0 -1.5 1.5 1.5 1.5 0 0 0 1.5 1.5 1.5 1.5 0 0 0 1.5-1.5 1.5 1.5 0 0 0 -1.5-1.5z" fill="#1d99f3"/><path d="m11 4v1h17v-1zm0 3v1h13v-1zm0 7v1h17v-1zm0 3v1h4v-1zm0 7v1h7v-1zm0 3v1h7v-1z" fill="#4d4d4d"/><path d="m20.707031 20-.707031.707031 3.292969 3.292969-3.292969 3.292969c.0126.0252.707031.707031.707031.707031l3.292969-3.292969 3.292969 3.292969.707031-.707031-3.292969-3.292969 3.292969-3.292969-.707031-.707031-3.292969 3.292969z" fill="#da4453"/></svg>

<svg xmlns="http://www.w3.org/2000/svg" viewBox="0 0 32 32">
 <path 
     style="fill:#1d99f3" 
     d="M 5.5 4 A 1.5 1.5 0 0 0 4 5.5 A 1.5 1.5 0 0 0 5.5 7 A 1.5 1.5 0 0 0 7 5.5 A 1.5 1.5 0 0 0 5.5 4 z M 5.5 14 A 1.5 1.5 0 0 0 4 15.5 A 1.5 1.5 0 0 0 5.5 17 A 1.5 1.5 0 0 0 7 15.5 A 1.5 1.5 0 0 0 5.5 14 z M 5.5 24 A 1.5 1.5 0 0 0 4 25.5 A 1.5 1.5 0 0 0 5.5 27 A 1.5 1.5 0 0 0 7 25.5 A 1.5 1.5 0 0 0 5.5 24 z "
     />
 <path 
     style="fill:#4d4d4d" 
     d="M 11 4 L 11 5 L 28 5 L 28 4 L 11 4 z M 11 7 L 11 8 L 24 8 L 24 7 L 11 7 z M 11 14 L 11 15 L 28 15 L 28 14 L 11 14 z M 11 17 L 11 18 L 15 18 L 15 17 L 11 17 z M 11 24 L 11 25 L 18 25 L 18 24 L 11 24 z M 11 27 L 11 28 L 18 28 L 18 27 L 11 27 z "
     />
 <path 
     style="fill:#da4453" 
     d="M 20.707031 20 L 20 20.707031 L 23.292969 24 L 20 27.292969 C 20.0126 27.318169 20.707031 28 20.707031 28 L 24 24.707031 L 27.292969 28 L 28 27.292969 L 24.707031 24 L 28 20.707031 L 27.292969 20 L 24 23.292969 L 20.707031 20 z "
     />
</svg>
